svg/huey.svg

<svg viewBox="0 0 20 20" xmlns="http://www.w3.org/2000/svg">
<rect width="100%" height="100%" fill="black"/>
<path fill-rule="evenodd" clip-rule="evenodd" d="M17 6.83544V14.4557H8.67089V8.78481H5.12658V14.4557H3V4H5.12658V6.83544H11.1519V12.5063H14.6962V6.83544H17ZM17 8.78481V9.67089ZM17 11.6203V12.5063Z" fill="white"/>
</svg>

<svg xmlns="http://www.w3.org/2000/svg" viewBox="0 0 20 20">
  <rect width="100%" height="100%"/>
  <path fill="#fff" fill-rule="evenodd" d="M17 6.84v7.62H8.67V8.78H5.13v5.68H3V4h2.13v2.84h6.02v5.67h3.55V6.84H17Zm0 1.94v.9Zm0 2.84v.89Z" clip-rule="evenodd"/>
</svg>
